resources/haticons/SVG/textsms.svg

<!-- Generated by IcoMoon.io -->
<svg version="1.1" xmlns="http://www.w3.org/2000/svg" width="24" height="24" viewBox="0 0 24 24">
<title>textsms</title>
<path d="M17.016 11.016v-2.016h-2.016v2.016h2.016zM12.984 11.016v-2.016h-1.969v2.016h1.969zM9 11.016v-2.016h-2.016v2.016h2.016zM20.016 2.016q0.797 0 1.383 0.586t0.586 1.383v12q0 0.797-0.586 1.406t-1.383 0.609h-14.016l-3.984 3.984v-18q0-0.797 0.586-1.383t1.383-0.586h16.031z"></path>
</svg>

<svg xmlns="http://www.w3.org/2000/svg" width="24" height="24"><path d="M17.016 11.016V9H15v2.016h2.016zm-4.032 0V9h-1.969v2.016h1.969zm-3.984 0V9H6.984v2.016H9zm11.016-9q.797 0 1.383.586t.586 1.383v12q0 .797-.586 1.406T20.016 18H6l-3.984 3.984v-18q0-.797.586-1.383t1.383-.586h16.031z"/></svg>
